apps/scalable/system-hibernate.svg

<svg height="48" width="48" xmlns="http://www.w3.org/2000/svg" xmlns:xlink="http://www.w3.org/1999/xlink"><linearGradient id="a" gradientUnits="userSpaceOnUse" x1="399.57144" x2="399.57144" y1="545.79797" y2="517.79797"><stop offset="0" stop-color="#3889e9"/><stop offset="1" stop-color="#5ea5fb"/></linearGradient><linearGradient id="b" gradientUnits="userSpaceOnUse" x1="15.883406" x2="14.337673" y1="55.641636" y2="-7.895216"><stop offset="0" stop-color="#566069"/><stop offset="1" stop-color="#6c7884"/></linearGradient><g stroke-width="1.3" transform="matrix(1.6383916 0 0 1.6383916 -632.273205494467 -847.230747560362)"><circle cx="400.57144" cy="531.79797" fill="none" r="13.999958"/><circle cx="400.57138" cy="531.79791" fill="url(#a)" r="0"/></g><path d="m12.2 15.267c0-3.322.896-6.43 2.448-9.113.376-.649-.191-1.451-.918-1.265-8.38 2.152-14.441 10.072-13.663 19.29.736 8.701 7.768 15.803 16.463 16.617 6.033.565 11.517-1.811 15.221-5.848.5-.546.073-1.432-.666-1.401-.196.009-.395.013-.594.013-10.102 0-18.291-8.189-18.291-18.293zm34.924912 7.772636a31.088175 31.088175 0 0 1 -31.08818 31.088179 31.088175 31.088175 0 0 1 -31.088179-31.088179 31.088175 31.088175 0 0 1 31.088179-31.0881797 31.088175 31.088175 0 0 1 31.08818 31.0881797z" fill="url(#b)" transform="matrix(.737817950497 0 0 .737817950497 12.148137773017 6.938360403786)"/></svg>

<?xml version="1.0" encoding="UTF-8" standalone="no"?>
<!-- Created with Inkscape (http://www.inkscape.org/) -->

<svg
   xmlns:osb="http://www.openswatchbook.org/uri/2009/osb"
   xmlns:dc="http://purl.org/dc/elements/1.1/"
   xmlns:cc="http://creativecommons.org/ns#"
   xmlns:rdf="http://www.w3.org/1999/02/22-rdf-syntax-ns#"
   xmlns:svg="http://www.w3.org/2000/svg"
   xmlns="http://www.w3.org/2000/svg"
   xmlns:xlink="http://www.w3.org/1999/xlink"
   xmlns:sodipodi="http://sodipodi.sourceforge.net/DTD/sodipodi-0.dtd"
   xmlns:inkscape="http://www.inkscape.org/namespaces/inkscape"
   width="48"
   height="48"
   id="svg5453"
   version="1.1"
   inkscape:version="0.91 r13725"
   sodipodi:docname="system-suspend-hibernate.svg">
  <defs
     id="defs5455">
    <linearGradient
       id="linearGradient4232">
      <stop
         style="stop-color:#3889e9;stop-opacity:1"
         offset="0"
         id="stop4234-0" />
      <stop
         style="stop-color:#5ea5fb;stop-opacity:1"
         offset="1"
         id="stop4236" />
    </linearGradient>
    <linearGradient
       gradientUnits="userSpaceOnUse"
       y2="517.79797"
       x2="399.57144"
       y1="545.79797"
       x1="399.57144"
       id="linearGradient3426"
       xlink:href="#linearGradient4232"
       inkscape:collect="always" />
    <linearGradient
       id="linearGradient4207"
       osb:paint="gradient">
      <stop
         style="stop-color:#3498db;stop-opacity:1;"
         offset="0"
         id="stop3371" />
      <stop
         style="stop-color:#3498db;stop-opacity:0;"
         offset="1"
         id="stop3373" />
    </linearGradient>
    <linearGradient
       gradientUnits="userSpaceOnUse"
       y2="-7.895216"
       x2="14.337673"
       y1="55.641636"
       x1="15.883406"
       id="linearGradient4224"
       xlink:href="#linearGradient4227-2"
       inkscape:collect="always" />
    <linearGradient
       inkscape:collect="always"
       xlink:href="#linearGradient4232"
       id="linearGradient4267"
       x1="399.57144"
       y1="545.79797"
       x2="399.57144"
       y2="517.79797"
       gradientUnits="userSpaceOnUse" />
    <linearGradient
       id="linearGradient4227-2">
      <stop
         offset="0"
         style="stop-color:#566069;stop-opacity:1"
         id="stop4229-9" />
      <stop
         offset="1"
         style="stop-color:#6c7884;stop-opacity:1"
         id="stop4231-4" />
    </linearGradient>
  </defs>
  <sodipodi:namedview
     id="base"
     pagecolor="#868686"
     bordercolor="#666666"
     borderopacity="1.0"
     inkscape:pageopacity="0"
     inkscape:pageshadow="2"
     inkscape:zoom="4.0548154"
     inkscape:cx="-22.916764"
     inkscape:cy="29.975118"
     inkscape:document-units="px"
     inkscape:current-layer="layer1"
     showgrid="false"
     fit-margin-top="0"
     fit-margin-left="0"
     fit-margin-right="0"
     fit-margin-bottom="0"
     inkscape:window-width="1366"
     inkscape:window-height="630"
     inkscape:window-x="0"
     inkscape:window-y="36"
     inkscape:window-maximized="1"
     inkscape:showpageshadow="false"
     borderlayer="true"
     showguides="false">
    <inkscape:grid
       type="xygrid"
       id="grid4063" />
    <sodipodi:guide
       position="1.1650391e-05,32.000026"
       orientation="32,0"
       id="guide4157" />
    <sodipodi:guide
       position="1.1650391e-05,2.6367188e-05"
       orientation="0,32"
       id="guide4159" />
    <sodipodi:guide
       position="32.000012,2.6367188e-05"
       orientation="-32,0"
       id="guide4161" />
    <sodipodi:guide
       position="32.000012,32.000026"
       orientation="0,-32"
       id="guide4163" />
    <sodipodi:guide
       position="2.0000117,30.000026"
       orientation="28,0"
       id="guide4167" />
    <sodipodi:guide
       position="30.000012,2.0000264"
       orientation="-28,0"
       id="guide4171" />
    <sodipodi:guide
       position="30.000012,30.000026"
       orientation="0,-28"
       id="guide4173" />
    <sodipodi:guide
       position="2.0000117,30.000026"
       orientation="28,0"
       id="guide4181" />
    <sodipodi:guide
       position="2.0000117,2.0000264"
       orientation="0,14"
       id="guide4183" />
    <sodipodi:guide
       position="16.000012,2.0000264"
       orientation="-28,0"
       id="guide4185" />
    <sodipodi:guide
       position="16.000012,30.000026"
       orientation="0,-14"
       id="guide4187" />
    <sodipodi:guide
       position="9.0000117,23.000026"
       orientation="14,0"
       id="guide4193" />
    <sodipodi:guide
       position="9.0000117,9.0000264"
       orientation="0,14.000031"
       id="guide4195" />
    <sodipodi:guide
       position="23.000042,9.0000264"
       orientation="-14,0"
       id="guide4197" />
    <sodipodi:guide
       position="23.000042,23.000026"
       orientation="0,-14.000031"
       id="guide4199" />
    <sodipodi:guide
       position="21.29297,22"
       orientation="1.29297,-1.29297"
       id="guide4251" />
    <sodipodi:guide
       position="20,20.70703"
       orientation="0.70703,0.70703"
       id="guide4253" />
    <sodipodi:guide
       position="20.70703,20"
       orientation="-1.29297,1.29297"
       id="guide4255" />
    <sodipodi:guide
       position="22,21.29297"
       orientation="-0.70703,-0.70703"
       id="guide4257" />
    <sodipodi:guide
       position="21.29297,22"
       orientation="0,0"
       id="guide4259" />
    <sodipodi:guide
       position="11.29297,12"
       orientation="1.29297,-1.29297"
       id="guide4266" />
    <sodipodi:guide
       position="10,10.70703"
       orientation="0.70703,0.70703"
       id="guide4268" />
    <sodipodi:guide
       position="10.70703,10"
       orientation="-1.29297,1.29297"
       id="guide4270" />
    <sodipodi:guide
       position="12,11.29297"
       orientation="-0.70703,-0.70703"
       id="guide4272" />
    <sodipodi:guide
       position="11.29297,12"
       orientation="0,0"
       id="guide4274" />
  </sodipodi:namedview>
  <metadata
     id="metadata5458">
    <rdf:RDF>
      <cc:Work
         rdf:about="">
        <dc:format>image/svg+xml</dc:format>
        <dc:type
           rdf:resource="http://purl.org/dc/dcmitype/StillImage" />
        <dc:title />
      </cc:Work>
    </rdf:RDF>
  </metadata>
  <g
     inkscape:label="Layer 1"
     inkscape:groupmode="layer"
     id="layer1"
     transform="translate(-384.57143,-499.798)">
    <g
       id="layer1-8"
       inkscape:label="Layer 1"
       transform="matrix(1.6383916,0,0,1.6383916,-247.74111,-347.55796)">
      <g
         style="stroke:none"
         transform="translate(-0.11123528,0.03124873)"
         inkscape:label="Layer 1"
         id="layer1-39">
        <g
           id="layer1-3"
           inkscape:label="Layer 1"
           transform="translate(0.13524268,0.04517549)"
           style="stroke:none;stroke-width:1.29999995;stroke-miterlimit:4;stroke-dasharray:none;stroke-opacity:1">
          <circle
             style="opacity:1;fill:#5ea5fb;fill-opacity:0;stroke:none;stroke-width:1.29999995;stroke-miterlimit:4;stroke-dasharray:none;stroke-dashoffset:0;stroke-opacity:1"
             id="circle4174"
             cx="400.57144"
             cy="531.79797"
             r="13.999958" />
          <circle
             style="opacity:1;fill:url(#linearGradient3426);fill-opacity:1;stroke:none;stroke-width:1.29999995;stroke-miterlimit:4;stroke-dasharray:none;stroke-dashoffset:0;stroke-opacity:1"
             id="ellipse4233"
             cx="400.57138"
             cy="531.79791"
             r="0" />
        </g>
      </g>
      <g
         inkscape:label="Layer 1"
         id="layer1-7"
         transform="translate(-47.614944,3.7479639)">
        <g
           id="g4471"
           transform="matrix(1.0931221,0,0,1.0931221,33.310366,-50.486049)">
          <g
             inkscape:label="Layer 1"
             id="layer1-39-1"
             transform="matrix(1.5444819,0,0,1.5444819,-275.38426,-295.80854)" />
          <g
             transform="matrix(0.91481089,0,0,0.91481089,-76.187461,46.864295)"
             id="layer1-32"
             inkscape:label="Layer 1" />
          <g
             transform="matrix(0.7996534,0,0,0.7996534,370.63944,-303.64638)"
             id="layer1-5"
             inkscape:label="Layer 1"
             style="fill:#e7f0fa;fill-opacity:1">
            <g
               inkscape:label="Layer 1"
               id="layer1-6"
               transform="matrix(1.1440093,0,0,1.1440093,-481.90881,432.23438)">
              <g
                 style="fill:#424448;fill-opacity:1"
                 transform="translate(-17.242821,4.3927275)"
                 id="layer1-7-8"
                 inkscape:label="Layer 1">
                <g
                   style="fill:#424448;fill-opacity:1"
                   transform="matrix(1.0931221,0,0,1.0931221,33.310366,-50.486049)"
                   id="g4471-9">
                  <g
                     style="fill:#424448;fill-opacity:1"
                     transform="matrix(1.5444819,0,0,1.5444819,-275.38426,-295.80854)"
                     id="layer1-39-1-3"
                     inkscape:label="Layer 1" />
                  <g
                     style="fill:#424448;fill-opacity:1"
                     inkscape:label="Layer 1"
                     id="layer1-32-4"
                     transform="matrix(0.91481089,0,0,0.91481089,-76.187461,46.864295)" />
                  <g
                     style="fill:#424448;fill-opacity:1"
                     transform="matrix(0.91481089,0,0,0.91481089,-23.375645,51.298109)"
                     id="layer1-14"
                     inkscape:label="Layer 1">
                    <g
                       style="fill:#424448;fill-opacity:1"
                       transform="matrix(1.0931221,0,0,1.0931221,33.310366,-50.486049)"
                       id="g4471-6">
                      <g
                         style="fill:#424448;fill-opacity:1"
                         transform="matrix(1.5444819,0,0,1.5444819,-275.38426,-295.80854)"
                         id="layer1-39-4"
                         inkscape:label="Layer 1" />
                      <g
                         style="fill:#424448;fill-opacity:1"
                         inkscape:label="Layer 1"
                         id="layer1-32-0"
                         transform="matrix(0.91481089,0,0,0.91481089,-76.187461,46.864295)" />
                      <g
                         style="fill:#424448;fill-opacity:1"
                         inkscape:label="Layer 1"
                         id="layer1-8-6"
                         transform="matrix(0.83645867,0,0,0.83645867,-100.05713,27.55601)">
                        <g
                           style="fill:#424448;fill-opacity:1"
                           inkscape:label="Layer 1"
                           id="layer1-37-7"
                           transform="matrix(1.0974639,0,0,1.0974639,553.08062,-548.24616)" />
                        <g
                           style="fill:#424448;fill-opacity:1"
                           transform="matrix(0.49251371,0,0,0.49251371,557.00106,582.53439)"
                           id="g6619">
                          <g
                             style="fill:#424448;fill-opacity:1"
                             id="g6559">
                            <g
                               style="fill:#424448;fill-opacity:1"
                               id="g6561">
                              <g
                                 style="fill:#424448;fill-opacity:1"
                                 id="g6563">
                                <g
                                   style="fill:#424448;fill-opacity:1"
                                   id="g6565">
                                <g
                                   style="fill:#424448;fill-opacity:1"
                                   id="g6567">
                                <path
                                   inkscape:connector-curvature="0"
                                   d="m 12.2,15.267 c 0,-3.322 0.896,-6.43 2.448,-9.113 C 15.024,5.505 14.457,4.703 13.73,4.889 5.35,7.041 -0.711,14.961 0.067,24.179 0.803,32.88 7.835,39.982 16.53,40.796 c 6.033,0.565 11.517,-1.811 15.221,-5.848 0.5,-0.546 0.073,-1.432 -0.666,-1.401 C 30.889,33.556 30.69,33.56 30.491,33.56 20.389,33.56 12.2,25.371 12.2,15.267 Z m 34.924912,7.772636 A 31.088175,31.088175 0 0 1 16.036732,54.127815 31.088175,31.088175 0 0 1 -15.051447,23.039636 31.088175,31.088175 0 0 1 16.036732,-8.0485437 31.088175,31.088175 0 0 1 47.124912,23.039636 Z"
                                   style="fill:url(#linearGradient4224);fill-opacity:1.0"
                                   id="path6569" />
                                </g>
                                </g>
                                <g
                                   style="fill:#424448;fill-opacity:1"
                                   id="g6571" />
                                <g
                                   style="fill:#424448;fill-opacity:1"
                                   id="g6575" />
                                <g
                                   style="fill:#424448;fill-opacity:1"
                                   id="g6579" />
                              </g>
                            </g>
                          </g>
                          <g
                             style="fill:#424448;fill-opacity:1"
                             id="g6583" />
                          <g
                             style="fill:#424448;fill-opacity:1"
                             id="g6585" />
                          <g
                             style="fill:#424448;fill-opacity:1"
                             id="g6587" />
                          <g
                             style="fill:#424448;fill-opacity:1"
                             id="g6589" />
                          <g
                             style="fill:#424448;fill-opacity:1"
                             id="g6591" />
                          <g
                             style="fill:#424448;fill-opacity:1"
                             id="g6593" />
                          <g
                             style="fill:#424448;fill-opacity:1"
                             id="g6595" />
                          <g
                             style="fill:#424448;fill-opacity:1"
                             id="g6597" />
                          <g
                             style="fill:#424448;fill-opacity:1"
                             id="g6599" />
                          <g
                             style="fill:#424448;fill-opacity:1"
                             id="g6601" />
                          <g
                             style="fill:#424448;fill-opacity:1"
                             id="g6603" />
                          <g
                             style="fill:#424448;fill-opacity:1"
                             id="g6605" />
                          <g
                             style="fill:#424448;fill-opacity:1"
                             id="g6607" />
                          <g
                             style="fill:#424448;fill-opacity:1"
                             id="g6609" />
                          <g
                             style="fill:#424448;fill-opacity:1"
                             id="g6611" />
                        </g>
                      </g>
                    </g>
                  </g>
                </g>
              </g>
            </g>
          </g>
        </g>
      </g>
    </g>
  </g>
</svg>
